build/svg/cmd/32/sbaexecutesql.svg

<?xml version="1.0" encoding="UTF-8" standalone="no"?>
<svg
   xmlns:dc="http://purl.org/dc/elements/1.1/"
   xmlns:cc="http://creativecommons.org/ns#"
   xmlns:rdf="http://www.w3.org/1999/02/22-rdf-syntax-ns#"
   xmlns:svg="http://www.w3.org/2000/svg"
   xmlns="http://www.w3.org/2000/svg"
   xmlns:sodipodi="http://sodipodi.sourceforge.net/DTD/sodipodi-0.dtd"
   xmlns:inkscape="http://www.inkscape.org/namespaces/inkscape"
   viewBox="0 0 32 32"
   version="1.1"
   id="svg4"
   sodipodi:docname="sbaexecutesql.svg"
   inkscape:version="0.92.5 (2060ec1f9f, 2020-04-08)"
   inkscape:export-filename="/home/jupiter007/Libreoffice yaru theme fullcolor/build/cmd/32/sbaexecutesql.png"
   inkscape:export-xdpi="96"
   inkscape:export-ydpi="96">
  <metadata
     id="metadata10">
    <rdf:RDF>
      <cc:Work
         rdf:about="">
        <dc:format>image/svg+xml</dc:format>
        <dc:type
           rdf:resource="http://purl.org/dc/dcmitype/StillImage" />
      </cc:Work>
    </rdf:RDF>
  </metadata>
  <defs
     id="defs8" />
  <sodipodi:namedview
     pagecolor="#ffffff"
     bordercolor="#666666"
     borderopacity="1"
     objecttolerance="10"
     gridtolerance="10"
     guidetolerance="10"
     inkscape:pageopacity="0"
     inkscape:pageshadow="2"
     inkscape:window-width="1920"
     inkscape:window-height="1011"
     id="namedview6"
     showgrid="true"
     inkscape:zoom="20.85965"
     inkscape:cx="18.401486"
     inkscape:cy="10.144574"
     inkscape:window-x="0"
     inkscape:window-y="32"
     inkscape:window-maximized="1"
     inkscape:current-layer="svg4">
    <inkscape:grid
       type="xygrid"
       id="grid825" />
  </sodipodi:namedview>
  <path
     style="fill:#f2cbf8;fill-opacity:1;stroke-width:0.95833331"
     id="path817"
     d="M 16,4.5 C 9.648725,4.5 4.5,5.7871814 4.5,7.375 v 5.75 5.75 5.75 c 0,1.587818 5.148725,2.875 11.5,2.875 6.351275,0 11.5,-1.287182 11.5,-2.875 V 7.375 C 27.5,5.7871814 22.351275,4.5 16,4.5 Z"
     inkscape:connector-curvature="0"
     sodipodi:nodetypes="ssccsssss" />
  <path
     inkscape:connector-curvature="0"
     d="M 16,4 A 12,3 0 0 0 4,7 v 6 6 6 a 12,3 0 0 0 12,3 12,3 0 0 0 12,-3 V 7 A 12,3 0 0 0 16,4 Z m 0,1 A 11,2 0 0 1 27,7 11,2 0 0 1 16,8.9999999 11,2 0 0 1 5,7 11,2 0 0 1 16,5 Z M 27,8.1914059 V 13 A 11,2 0 0 1 16,15 11,2 0 0 1 5,13 V 8.1953129 a 12,3 0 0 0 11,1.804687 12,3 0 0 0 11,-1.808594 z m 0,6.0000001 V 19 A 11,2 0 0 1 16,21 11,2 0 0 1 5,19 V 14.195312 A 12,3 0 0 0 16,16 12,3 0 0 0 27,14.191406 Z m 0,6 V 25 A 11,2 0 0 1 16,27 11,2 0 0 1 5,25 V 20.195312 A 12,3 0 0 0 16,22 12,3 0 0 0 27,20.191406 Z"
     id="path2"
     style="fill:#8e03a3;fill-opacity:1" />
  <path
     sodipodi:nodetypes="cccccccc"
     style="opacity:0.6;fill:#000000;fill-opacity:1;stroke:#000000;stroke-width:2;stroke-linecap:butt;stroke-linejoin:round;stroke-miterlimit:4;stroke-dasharray:none;stroke-opacity:1"
     d="M 30,26.5 24,31 v -3 h -5 v -3 h 5 v -3 z"
     id="path839"
     inkscape:connector-curvature="0" />
  <path
     sodipodi:nodetypes="cccccccc"
     id="path841"
     d="M 30,26.5 24,31 v -3 h -5 v -3 h 5 v -3 z"
     style="fill:#ffffff;fill-opacity:1;stroke:none;stroke-width:1px;stroke-linecap:butt;stroke-linejoin:miter;stroke-opacity:1"
     inkscape:connector-curvature="0" />
</svg>

<svg xmlns="http://www.w3.org/2000/svg" viewBox="0 0 32 32"><path d="M16 4.5C9.649 4.5 4.5 5.787 4.5 7.375v17.25C4.5 26.213 9.649 27.5 16 27.5s11.5-1.287 11.5-2.875V7.375C27.5 5.787 22.351 4.5 16 4.5z" fill="#f2cbf8"/><path d="M16 4A12 3 0 004 7v18a12 3 0 0012 3 12 3 0 0012-3V7a12 3 0 00-12-3zm0 1a11 2 0 0111 2 11 2 0 01-11 2A11 2 0 015 7a11 2 0 0111-2zm11 3.191V13a11 2 0 01-11 2 11 2 0 01-11-2V8.195A12 3 0 0016 10a12 3 0 0011-1.809zm0 6V19a11 2 0 01-11 2 11 2 0 01-11-2v-4.805A12 3 0 0016 16a12 3 0 0011-1.809zm0 6V25a11 2 0 01-11 2 11 2 0 01-11-2v-4.805A12 3 0 0016 22a12 3 0 0011-1.809z" fill="#8e03a3"/><path d="M30 26.5L24 31v-3h-5v-3h5v-3z" opacity=".6" stroke="#000" stroke-width="2" stroke-linejoin="round"/><path d="M30 26.5L24 31v-3h-5v-3h5v-3z" fill="#fff"/></svg>
